X:1939
T:Bourrée à Cousset
R:Bourrée à 2 temps
A:Massif Central
O:France
M:2/4
L:1/8
K:D
A3B|G3A|F>EFG|A/2G/2A/2B/2 A/2G/2F/2G/2|A3B|G3A|FEGF|D4:|
|:DEFG|A/2G/2A/2B/2 Ad|cded|A/2G/2A/2B/2 A/2G/2F/2E/2|
DEFG|A>BAF|GEGF|D4:|


